src/lib/packages/icons/src/assets/line/credit-card-check.svg

<svg xmlns="http://www.w3.org/2000/svg" width="24" height="24" fill="none"><path fill="currentColor" d="M11 17.25H5c-1.577 0-2.25-.673-2.25-2.25V9.75h16.5V10a.75.75 0 0 0 1.5 0V7c0-2.418-1.332-3.75-3.75-3.75H5C2.582 3.25 1.25 4.582 1.25 7v8c0 2.418 1.332 3.75 3.75 3.75h6a.75.75 0 0 0 0-1.5ZM5 4.75h12c1.577 0 2.25.673 2.25 2.25v1.25H2.75V7c0-1.577.673-2.25 2.25-2.25Zm4 8.5a.75.75 0 0 1 0 1.5H6a.75.75 0 0 1 0-1.5h3Zm9-1A4.756 4.756 0 0 0 13.25 17 4.756 4.756 0 0 0 18 21.75 4.756 4.756 0 0 0 22.75 17 4.756 4.756 0 0 0 18 12.25Zm0 8A3.254 3.254 0 0 1 14.75 17 3.254 3.254 0 0 1 18 13.75 3.254 3.254 0 0 1 21.25 17 3.254 3.254 0 0 1 18 20.25Zm1.78-4.614a.75.75 0 0 1 0 1.061l-1.667 1.667a.749.749 0 0 1-1.06 0l-.833-.833a.75.75 0 1 1 1.061-1.061l.303.303 1.136-1.137a.749.749 0 0 1 1.06 0Z"/></svg>

<svg width="24" height="24" viewBox="0 0 24 24" fill="none" xmlns="http://www.w3.org/2000/svg">
<path d="M11 17.25H5C3.423 17.25 2.75 16.577 2.75 15V9.75H19.25V10C19.25 10.414 19.586 10.75 20 10.75C20.414 10.75 20.75 10.414 20.75 10V7C20.75 4.582 19.418 3.25 17 3.25H5C2.582 3.25 1.25 4.582 1.25 7V15C1.25 17.418 2.582 18.75 5 18.75H11C11.414 18.75 11.75 18.414 11.75 18C11.75 17.586 11.414 17.25 11 17.25ZM5 4.75H17C18.577 4.75 19.25 5.423 19.25 7V8.25H2.75V7C2.75 5.423 3.423 4.75 5 4.75ZM9 13.25C9.414 13.25 9.75 13.586 9.75 14C9.75 14.414 9.414 14.75 9 14.75H6C5.586 14.75 5.25 14.414 5.25 14C5.25 13.586 5.586 13.25 6 13.25H9ZM18 12.25C15.381 12.25 13.25 14.381 13.25 17C13.25 19.619 15.381 21.75 18 21.75C20.619 21.75 22.75 19.619 22.75 17C22.75 14.381 20.619 12.25 18 12.25ZM18 20.25C16.208 20.25 14.75 18.792 14.75 17C14.75 15.208 16.208 13.75 18 13.75C19.792 13.75 21.25 15.208 21.25 17C21.25 18.792 19.792 20.25 18 20.25ZM19.78 15.636C20.073 15.928 20.073 16.404 19.78 16.697L18.113 18.364C17.972 18.505 17.782 18.584 17.583 18.584C17.384 18.584 17.193 18.505 17.053 18.364L16.22 17.531C15.927 17.238 15.927 16.763 16.22 16.47C16.513 16.177 16.988 16.177 17.281 16.47L17.584 16.773L18.72 15.636C19.013 15.343 19.487 15.343 19.78 15.636Z" fill="currentColor"/>
</svg>
